src/images/pages/trade-explanation/pt/down.svg

<?xml version="1.0" encoding="UTF-8"?>
<svg width="299px" height="197px" viewBox="0 0 299 197" version="1.1" xmlns="http://www.w3.org/2000/svg" xmlns:xlink="http://www.w3.org/1999/xlink">
    <!-- Generator: Sketch 52.6 (67491) - http://www.bohemiancoding.com/sketch -->
    <title>Down</title>
    <desc>Created with Sketch.</desc>
    <g id="Down" stroke="none" stroke-width="1" fill="none" fill-rule="evenodd">
        <g id="fall">
            <polygon id="Path" stroke="#C2C2C2" stroke-width="2" fill="#F1F2F2" points="0 0 299 0 299 197 0 197"></polygon>
            <g id="Group-3" transform="translate(0.000000, 30.000000)">
                <path d="M2.92614576,24.5013759 L296.509938,24.5013759 M2.92614576,45.0991234 L296.509938,45.0991234 M2.92614576,65.6589376 L296.509938,65.6589376 M2.92614576,106.816499 L296.509938,106.816499 M2.92614576,127.376313 L296.509938,127.376313 M2.92614576,147.936128 L296.509938,147.936128 M38.3834915,3.94156168 L38.3834915,166.068215 M75.5455174,3.94156168 L75.5455174,166.068215 M112.669661,3.94156168 L112.669661,166.068215 M149.831687,3.94156168 L149.831687,166.068215 M186.955831,3.94156168 L186.955831,166.068215 M224.079975,3.94156168 L224.079975,166.068215 M261.242001,3.94156168 L261.242001,166.068215" id="Shape" stroke="#DFDEDE" stroke-width="1.22320267"></path>
                <path d="M0.804766102,2.72769811 L298.631318,2.72769811" id="Path" stroke="#C2C2C2" stroke-width="2.44678415" fill="#F1F2F2"></path>
                <path d="M188.508984,117.513672 L153.08952,117.513672 L147.634544,109.206293 L142.179568,117.513672 L106.760104,117.513672 C104.108379,117.513672 101.987,119.675866 101.987,122.369126 L101.987,147.442996 C101.987,150.136255 104.146261,152.29845 106.760104,152.29845 L188.546866,152.29845 C191.198591,152.29845 193.31997,150.136255 193.31997,147.442996 L193.31997,122.369126 C193.31997,119.675866 191.160709,117.513672 188.508984,117.513672 Z" id="Path" fill="#E88024"></path>
            </g>
        </g>
        <g id="Group" transform="translate(5.000000, 93.000000)">
            <path d="M0.261599031,22.6688593 L288.612573,22.6688593" id="Path" stroke="#2A3052" stroke-width="1.48506645" stroke-linejoin="round"></path>
            <polyline id="Path" stroke="#2A3052" stroke-width="3.63544266" stroke-linecap="round" stroke-linejoin="round" points="35.3296375 22.6688593 68.7926774 47.2166432 103.41226 8.53336683 136.463233 44.3596482 180.980307 0.413798995 224.040884 89.8854573 253.955618 63.4557789"></polyline>
            <ellipse id="Oval" fill="#FFFFFF" opacity="0.6" cx="35.3296375" cy="22.6688593" rx="8.06728138" ry="8.49574874"></ellipse>
            <ellipse id="Oval" stroke="#E88024" stroke-width="2.42362844" cx="35.3296375" cy="22.6688593" rx="8.06728138" ry="8.49574874"></ellipse>
            <ellipse id="Oval" fill="#FFFFFF" opacity="0.6" cx="253.955618" cy="62.8548794" rx="8.06728138" ry="8.49574874"></ellipse>
            <ellipse id="Oval" stroke="#E88024" stroke-width="2.42362844" cx="253.955618" cy="62.8558693" rx="8.06728138" ry="8.49574874"></ellipse>
        </g>
        <path d="M259.572,123.604 L260.976,123.604 L259.296,134.684 L257.934,134.684 L259.572,123.604 Z M261.941,127.015 L263.331,127.015 L264.441,132.997 L267.265,127.015 L268.657,127.015 L264.664,134.683 L263.682,134.683 L261.941,127.015 Z M273.519,126.912 C275.389,127.202 276.426,128.975 275.723,131.676 C275.021,134.377 272.641,135.195 270.853,134.688 C269.063,134.18 268.618,131.858 269.253,129.845 C269.887,127.833 271.649,126.621 273.519,126.912 Z M273.292,128.014 C271.89,127.682 270.973,128.995 270.632,129.941 C270.292,130.888 270.014,133.398 271.502,133.7 C272.992,134 273.972,132.894 274.386,131.49 C274.8,130.087 274.694,128.347 273.292,128.014 Z M247.928,134.657 L253.201,124.344 L254.425,124.344 L256.49,134.657 L255.056,134.657 L254.58,131.974 L250.684,131.974 L249.355,134.657 L247.928,134.657 Z M251.302,130.853 L254.352,130.853 L253.525,126.307 L251.302,130.853 Z" id="Shape" fill="#6D6E71" fill-rule="nonzero"></path>
        <path d="M178.206,166.659 L175.714,166.659 L175.714,158.415 L178.206,158.415 L178.206,166.659 Z M178.206,170.996 L175.714,170.996 L175.714,168.781 L178.206,168.781 L178.206,170.996 Z" id="Shape" fill="#FFFFFF" fill-rule="nonzero"></path>
        <path d="M143.582,161.184 L145.593,161.184 L145.694,162.648 C146.518,161.42 147.587,160.873 148.901,161.009 C149.661,161.088 151.266,161.337 151.744,163.497 C151.92,164.289 151.882,165.627 151.869,167.446 C151.864,168.152 151.864,169.375 151.869,171.113 L149.662,171.113 L149.662,164.893 C149.662,164.162 149.457,163.345 148.844,163.036 C148.001,162.611 146.414,162.789 145.777,163.86 L145.777,171.113 L143.582,171.113 L143.582,161.183 L143.582,161.184 Z M125.862,165.831 L125.862,164.162 L130.911,164.162 C130.968,167.071 130.968,168.767 130.911,169.25 C130.485,170.523 125.443,172.838 122.187,169.902 C121.217,169.026 120.761,168.057 120.511,166.589 C120.5,165.089 120.473,163.683 120.483,162.352 C120.73,160.722 121.276,159.796 121.716,159.27 C123.316,157.356 125.866,156.945 128.11,157.72 C130.353,158.495 130.644,160.106 130.825,161.681 C130.306,161.681 130.032,161.659 128.629,161.681 C128.771,160.795 127.965,159.081 125.86,159.175 C123.756,159.27 122.763,160.999 122.763,162.439 C122.763,163.879 122.687,163.396 122.763,166.258 C122.858,169.545 126.798,170.427 128.629,168.671 L128.696,165.872 L125.862,165.831 Z M135.749,163.996 C135.072,163.991 134.362,163.991 133.619,163.996 C133.619,162.927 134.383,160.989 137.443,160.989 C140.503,160.989 141.237,163.091 141.32,163.543 C141.403,163.996 141.107,170.342 141.747,171.063 L139.474,171.065 C139.287,170.423 139.193,169.948 139.193,169.641 C138.838,170.074 138.228,170.865 137.291,171.155 C136.354,171.445 134.225,171.602 133.353,169.559 C132.778,168.213 133.145,166.699 134.225,166.005 C136.009,164.858 138.461,165.242 139.193,165.242 C139.287,163.197 138.677,162.722 137.291,162.722 C136.367,162.722 135.853,163.146 135.749,163.996 Z M139.192,166.639 C138.443637,166.622883 137.694957,166.629553 136.947,166.659 C136.055,166.737 135.26,167.396 135.328,168.336 C135.408,169.456 136.683,169.663 137.68,169.339 C138.517,169.068 139.101,168.368 139.192,168.069 L139.192,166.639 Z M168.788,160.995 C169.885,160.934 171.274,161.323 172.051,162.127 C172.911,163.017 173.525,164.123 173.525,165.95 C173.525,167.567 173.208,168.737 172.458,169.682 C171.611,170.749 170.291,171.238 169.22,171.238 C168.11,171.238 166.904,171.06 165.892,170.105 C165.063,169.325 164.297,167.985 164.373,166.116 C164.458,164.052 165.109,162.874 165.892,162.127 C166.683,161.373 167.612,161.06 168.788,160.995 Z M169.006,162.758 C168.006,162.758 166.651,163.205 166.651,166.01 C166.651,168.815 167.744,169.495 169.006,169.495 C170.268,169.495 171.324,168.378 171.234,165.875 C171.144,163.374 170.007,162.758 169.006,162.758 Z M154.186,156.751 L156.298,156.751 C156.337,160.213 156.356,162.099 156.356,162.41 C156.871,161.61 158.364,160.52 159.957,161.014 C162.485,161.796 162.37,163.445 162.485,164.552 C162.562,165.29 162.562,167.444 162.485,171.016 L160.295,171.016 C160.355,168.068 160.355,165.973 160.295,164.732 C160.375,162.582 157.701,161.935 156.298,163.856 L156.356,171.016 L154.186,171.016 L154.186,156.751 Z" id="Shape" fill="#FFFFFF" fill-rule="nonzero"></path>
        <path d="M29.236,135.042 L29.35,136.218 C29.8160501,135.404022 30.6892289,134.909336 31.627,134.928 C32.462,134.928 33.107,135.156 33.562,135.687 C34.018,136.18 34.245,136.939 34.245,137.964 L34.245,142.897 L32.842,142.897 L32.842,138.002 C32.842,137.319 32.69,136.825 32.425,136.522 C32.159,136.218 31.742,136.104 31.21,136.104 C30.793,136.104 30.452,136.218 30.148,136.408 C29.844,136.598 29.578,136.863 29.389,137.205 L29.389,142.897 L27.985,142.897 L27.985,135.08 L29.237,135.042 L29.236,135.042 Z M24.121,132.414 L25.547,132.414 L25.547,142.959 L24.122,142.959 L24.121,132.414 Z M36.476,134.944 L37.902,134.944 L37.902,142.897 L36.476,142.897 L36.476,134.944 Z M48.074,135.021 L49.477,135.021 L49.477,142.746 L48.074,142.746 L48.074,135.021 Z M48.092,131.513 L48.092,132.906 L49.522,132.906 L49.522,131.513 L48.092,131.513 Z M44.73,137.766 C45.229,137.752 45.697,137.766 45.998,137.766 C45.998,135.534 44.229,134.945 42.807,134.945 C41.384,134.945 39.615,136.235 39.615,139.003 C39.615,141.772 41.167,143.118 43.095,143.049 C45.021,142.979 45.998,141.514 45.998,140.436 C45.436,140.449 45.293,140.449 44.73,140.436 C44.73,141.455 43.813,141.99 43.094,141.99 C41.374,141.99 40.984,140.32 40.984,138.994 C40.984,137.666 41.424,136.028 42.96,136.028 C44.264,136.028 44.73,137.038 44.73,137.766 Z M54.685,134.931 C55.572,134.882 56.695,135.191 57.324,135.828 C58.018,136.533 58.515,137.41 58.515,138.858 C58.515,140.139 58.259,141.066 57.652,141.815 C56.967,142.661 55.9,143.048 55.034,143.048 C54.137,143.048 53.163,142.907 52.344,142.15 C51.674,141.531 51.054,140.47 51.116,138.99 C51.185,137.353 51.711,136.42 52.344,135.828 C52.984,135.23 53.735,134.982 54.685,134.931 Z M55.005,136.001 C53.987,136.001 52.756,136.665 52.756,138.723 C52.756,140.782 53.516,142.006 54.879,142.006 C56.244,142.006 57.139,140.621 57.001,138.723 C56.862,136.825 56.022,136.001 55.004,136.001 L55.005,136.001 Z M36.552,133.801 L37.584,133.801 L39.564,131.93 L37.884,131.93 L36.552,133.801 Z" id="Shape" fill="#2A3052" fill-rule="nonzero"></path>
        <path d="M260.22,171.959 L260.22,172.965 L255.395,172.965 L255.395,176.381 L259.505,176.381 L259.505,177.417 L255.395,177.417 L255.395,181.791 L253.978,181.791 L253.978,171.959 L260.22,171.959 Z M261.462,174.501 L262.766,174.501 L262.766,181.675 L261.463,181.675 L261.462,174.501 Z M261.48,171.242 L261.48,172.536 L262.808,172.536 L262.808,171.242 L261.48,171.242 Z M264.919,174.568 L266.061,174.568 C266.067,174.796 266.099,175.098 266.157,175.473 C267.291,174.127 269.589,173.884 270.378,175.762 C271.15,174.568 271.911,174.25 273.153,174.457 C274.725,174.718 274.96,176.493 275.036,177.164 C275.003,179.086 275.024,180.776 275.036,181.791 L273.713,181.791 L273.713,177.164 C273.673,176.48 273.443,175.473 272.283,175.473 C271.121,175.473 270.601,176.537 270.601,177.164 L270.601,181.791 L269.286,181.791 L269.286,177.164 C269.286,176.356 268.791,175.31 267.624,175.473 C266.457,175.635 266.359,176.159 266.157,176.433 C266.170673,178.218974 266.170673,180.005026 266.157,181.791 L264.919,181.791 L264.919,174.568 Z" id="Shape" fill="#2A3052" fill-rule="nonzero"></path>
        <path d="M22.2841797,19.8027344 L18.4316406,19.8027344 L17.6992188,22 L15.362793,22 L19.3325195,11.3359375 L21.3686523,11.3359375 L25.3603516,22 L23.0239258,22 L22.2841797,19.8027344 Z M19.0249023,18.0229492 L21.690918,18.0229492 L20.3505859,14.03125 L19.0249023,18.0229492 Z M33.3583984,18.1108398 C33.3583984,19.3803774 33.0874051,20.3703578 32.5454102,21.0808105 C32.0034153,21.7912633 31.2465869,22.1464844 30.2749023,22.1464844 C29.415523,22.1464844 28.7294948,21.8168978 28.2167969,21.1577148 L28.121582,22 L26.2172852,22 L26.2172852,10.75 L28.3339844,10.75 L28.3339844,14.7856445 C28.8222681,14.2143526 29.4643515,13.9287109 30.2602539,13.9287109 C31.2270556,13.9287109 31.9851047,14.283932 32.5344238,14.9943848 C33.083743,15.7048375 33.3583984,16.7045834 33.3583984,17.9936523 L33.3583984,18.1108398 Z M31.2416992,17.9570312 C31.2416992,17.156246 31.1147474,16.571535 30.8608398,16.2028809 C30.6069323,15.8342267 30.2285181,15.6499023 29.7255859,15.6499023 C29.0517544,15.6499023 28.5878919,15.9257785 28.3339844,16.4775391 L28.3339844,19.6049805 C28.5927747,20.1616239 29.06152,20.4399414 29.7402344,20.4399414 C30.4238315,20.4399414 30.8730458,20.1030307 31.0878906,19.4291992 C31.1904302,19.106932 31.2416992,18.6162142 31.2416992,17.9570312 Z M39.2543945,22 C39.1567378,21.8095694 39.0859377,21.5727553 39.0419922,21.2895508 C38.5292943,21.8608427 37.8627971,22.1464844 37.0424805,22.1464844 C36.2661094,22.1464844 35.6228053,21.9218772 35.1125488,21.4726562 C34.6022924,21.0234353 34.347168,20.4570347 34.347168,19.7734375 C34.347168,18.9335896 34.6584442,18.2890647 35.2810059,17.8398438 C35.9035676,17.3906228 36.8032168,17.1635742 37.9799805,17.1586914 L38.9541016,17.1586914 L38.9541016,16.7045898 C38.9541016,16.3383771 38.8601084,16.0454113 38.6721191,15.8256836 C38.4841299,15.6059559 38.187502,15.4960938 37.7822266,15.4960938 C37.4257795,15.4960938 37.1462412,15.5815421 36.9436035,15.7524414 C36.7409658,15.9233407 36.6396484,16.1577134 36.6396484,16.4555664 L34.5229492,16.4555664 C34.5229492,15.9965797 34.6645494,15.5717793 34.9477539,15.1811523 C35.2309584,14.7905254 35.6313451,14.484132 36.1489258,14.2619629 C36.6665065,14.0397938 37.2475554,13.9287109 37.8920898,13.9287109 C38.8686572,13.9287109 39.643796,14.1740698 40.2175293,14.6647949 C40.7912626,15.15552 41.078125,15.8452104 41.078125,16.7338867 L41.078125,20.1689453 C41.0830078,20.9209022 41.1879873,21.4897442 41.3930664,21.8754883 L41.3930664,22 L39.2543945,22 Z M37.5039062,20.527832 C37.8164078,20.527832 38.1044909,20.4582526 38.3681641,20.3190918 C38.6318373,20.1799309 38.8271478,19.9931652 38.9541016,19.7587891 L38.9541016,18.3964844 L38.1630859,18.3964844 C37.1035103,18.3964844 36.5395511,18.7626917 36.4711914,19.4951172 L36.4638672,19.6196289 C36.4638672,19.8833021 36.5566397,20.1005851 36.7421875,20.2714844 C36.9277353,20.4423837 37.181639,20.527832 37.5039062,20.527832 Z M44.9379883,22 L42.8139648,22 L42.8139648,14.0751953 L44.9379883,14.0751953 L44.9379883,22 Z M42.6894531,12.0244141 C42.6894531,11.7070297 42.7956532,11.4458018 43.0080566,11.2407227 C43.22046,11.0356435 43.5097638,10.9331055 43.8759766,10.9331055 C44.2373065,10.9331055 44.5253896,11.0356435 44.7402344,11.2407227 C44.9550792,11.4458018 45.0625,11.7070297 45.0625,12.0244141 C45.0625,12.3466813 44.9538585,12.6103505 44.7365723,12.8154297 C44.519286,13.0205088 44.2324237,13.1230469 43.8759766,13.1230469 C43.5195295,13.1230469 43.2326671,13.0205088 43.0153809,12.8154297 C42.7980946,12.6103505 42.6894531,12.3466813 42.6894531,12.0244141 Z M49.6987305,16.440918 L51.0317383,14.0751953 L53.2949219,14.0751953 L51.0390625,17.9570312 L53.3901367,22 L51.1196289,22 L49.7060547,19.5097656 L48.2998047,22 L46.0219727,22 L48.3730469,17.9570312 L46.1245117,14.0751953 L48.3950195,14.0751953 L49.6987305,16.440918 Z M53.6904297,17.9643555 C53.6904297,17.1782187 53.8417954,16.4775421 54.1445312,15.8623047 C54.4472671,15.2470672 54.8830538,14.7709978 55.4519043,14.434082 C56.0207548,14.0971663 56.6811486,13.9287109 57.4331055,13.9287109 C58.5024468,13.9287109 59.3752408,14.2558561 60.0515137,14.9101562 C60.7277866,15.5644564 61.1049801,16.4531194 61.1831055,17.5761719 L61.1977539,18.1181641 C61.1977539,19.3339905 60.8584018,20.3093225 60.1796875,21.0441895 C59.5009732,21.7790564 58.5903377,22.1464844 57.4477539,22.1464844 C56.3051701,22.1464844 55.393314,21.7802771 54.7121582,21.0478516 C54.0310025,20.315426 53.6904297,19.3193422 53.6904297,18.0595703 L53.6904297,17.9643555 Z M55.8071289,18.1181641 C55.8071289,18.8701209 55.9487291,19.4450664 56.2319336,19.8430176 C56.5151381,20.2409688 56.9204075,20.4399414 57.4477539,20.4399414 C57.9604518,20.4399414 58.3608384,20.2434102 58.6489258,19.8503418 C58.9370132,19.4572734 59.0810547,18.8286176 59.0810547,17.9643555 C59.0810547,17.2270471 58.9370132,16.6557637 58.6489258,16.2504883 C58.3608384,15.8452128 57.955569,15.6425781 57.4331055,15.6425781 C56.9155248,15.6425781 56.5151381,15.8439921 56.2319336,16.2468262 C55.9487291,16.6496602 55.8071289,17.2734333 55.8071289,18.1181641 Z" id="Abaixo" fill="#000000"></path>
    </g>
</svg>

<svg width="299" height="197" xmlns="http://www.w3.org/2000/svg"><g fill="none" fill-rule="evenodd"><path stroke="#C2C2C2" stroke-width="2" fill="#F1F2F2" d="M0 0h299v197H0z"/><path d="M2.926 54.501H296.51M2.926 75.1H296.51M2.926 95.66H296.51M2.926 136.816H296.51M2.926 157.376H296.51M2.926 177.936H296.51M38.383 33.942v162.126M75.546 33.942v162.126M112.67 33.942v162.126m37.162-162.126v162.126m37.124-162.126v162.126M224.08 33.942v162.126m37.162-162.126v162.126" stroke="#DFDEDE" stroke-width="1.223"/><path d="M.805 32.728H298.63" stroke="#C2C2C2" stroke-width="2.447" fill="#F1F2F2"/><path d="M188.509 147.514h-35.42l-5.454-8.308-5.455 8.308h-35.42c-2.652 0-4.773 2.162-4.773 4.855v25.074c0 2.693 2.16 4.855 4.773 4.855h81.787c2.652 0 4.773-2.162 4.773-4.855v-25.074c0-2.693-2.16-4.855-4.811-4.855z" fill="#E88024"/><g transform="translate(5 93)"><path d="M.262 22.669h288.35" stroke="#2A3052" stroke-width="1.485" stroke-linejoin="round"/><path stroke="#2A3052" stroke-width="3.635" stroke-linecap="round" stroke-linejoin="round" d="M35.33 22.669l33.463 24.548 34.62-38.684 33.05 35.827L180.98.414l43.06 89.471 29.916-26.43"/><ellipse fill="#FFF" opacity=".6" cx="35.33" cy="22.669" rx="8.067" ry="8.496"/><ellipse stroke="#E88024" stroke-width="2.424" cx="35.33" cy="22.669" rx="8.067" ry="8.496"/><ellipse fill="#FFF" opacity=".6" cx="253.956" cy="62.855" rx="8.067" ry="8.496"/><ellipse stroke="#E88024" stroke-width="2.424" cx="253.956" cy="62.856" rx="8.067" ry="8.496"/></g><path d="M259.572 123.604h1.404l-1.68 11.08h-1.362l1.638-11.08zm2.369 3.411h1.39l1.11 5.982 2.824-5.982h1.392l-3.993 7.668h-.982l-1.741-7.668zm11.578-.103c1.87.29 2.907 2.063 2.204 4.764-.702 2.701-3.082 3.519-4.87 3.012-1.79-.508-2.235-2.83-1.6-4.843.634-2.012 2.396-3.224 4.266-2.933zm-.227 1.102c-1.402-.332-2.319.981-2.66 1.927-.34.947-.618 3.457.87 3.759 1.49.3 2.47-.806 2.884-2.21.414-1.403.308-3.143-1.094-3.476zm-25.364 6.643l5.273-10.313h1.224l2.065 10.313h-1.434l-.476-2.683h-3.896l-1.329 2.683h-1.427zm3.374-3.804h3.05l-.827-4.546-2.223 4.546z" fill="#6D6E71" fill-rule="nonzero"/><path d="M178.206 166.659h-2.492v-8.244h2.492v8.244zm0 4.337h-2.492v-2.215h2.492v2.215zM143.582 161.184h2.011l.101 1.464c.824-1.228 1.893-1.775 3.207-1.639.76.079 2.365.328 2.843 2.488.176.792.138 2.13.125 3.949-.005.706-.005 1.929 0 3.667h-2.207v-6.22c0-.731-.205-1.548-.818-1.857-.843-.425-2.43-.247-3.067.824v7.253h-2.195v-9.93.001zm-17.72 4.647v-1.669h5.049c.057 2.909.057 4.605 0 5.088-.426 1.273-5.468 3.588-8.724.652-.97-.876-1.426-1.845-1.676-3.313-.011-1.5-.038-2.906-.028-4.237.247-1.63.793-2.556 1.233-3.082 1.6-1.914 4.15-2.325 6.394-1.55 2.243.775 2.534 2.386 2.715 3.961-.519 0-.793-.022-2.196 0 .142-.886-.664-2.6-2.769-2.506-2.104.095-3.097 1.824-3.097 3.264 0 1.44-.076.957 0 3.819.095 3.287 4.035 4.169 5.866 2.413l.067-2.799-2.834-.041zm9.887-1.835a151.15 151.15 0 0 0-2.13 0c0-1.069.764-3.007 3.824-3.007 3.06 0 3.794 2.102 3.877 2.554.083.453-.213 6.799.427 7.52l-2.273.002c-.187-.642-.281-1.117-.281-1.424-.355.433-.965 1.224-1.902 1.514-.937.29-3.066.447-3.938-1.596-.575-1.346-.208-2.86.872-3.554 1.784-1.147 4.236-.763 4.968-.763.094-2.045-.516-2.52-1.902-2.52-.924 0-1.438.424-1.542 1.274zm3.443 2.643a36.881 36.881 0 0 0-2.245.02c-.892.078-1.687.737-1.619 1.677.08 1.12 1.355 1.327 2.352 1.003.837-.271 1.421-.971 1.512-1.27v-1.43zm29.596-5.644c1.097-.061 2.486.328 3.263 1.132.86.89 1.474 1.996 1.474 3.823 0 1.617-.317 2.787-1.067 3.732-.847 1.067-2.167 1.556-3.238 1.556-1.11 0-2.316-.178-3.328-1.133-.829-.78-1.595-2.12-1.519-3.989.085-2.064.736-3.242 1.519-3.989.791-.754 1.72-1.067 2.896-1.132zm.218 1.763c-1 0-2.355.447-2.355 3.252 0 2.805 1.093 3.485 2.355 3.485s2.318-1.117 2.228-3.62c-.09-2.501-1.227-3.117-2.228-3.117zm-14.82-6.007h2.112c.039 3.462.058 5.348.058 5.659.515-.8 2.008-1.89 3.601-1.396 2.528.782 2.413 2.431 2.528 3.538.077.738.077 2.892 0 6.464h-2.19c.06-2.948.06-5.043 0-6.284.08-2.15-2.594-2.797-3.997-.876l.058 7.16h-2.17v-14.265z" fill="#FFF" fill-rule="nonzero"/><path d="M29.236 135.042l.114 1.176a2.565 2.565 0 0 1 2.277-1.29c.835 0 1.48.228 1.935.759.456.493.683 1.252.683 2.277v4.933h-1.403v-4.895c0-.683-.152-1.177-.417-1.48-.266-.304-.683-.418-1.215-.418a1.94 1.94 0 0 0-1.062.304 2.18 2.18 0 0 0-.759.797v5.692h-1.404v-7.817l1.252-.038h-.001zm-5.115-2.628h1.426v10.545h-1.425l-.001-10.545zm12.355 2.53h1.426v7.953h-1.426v-7.953zm11.598.077h1.403v7.725h-1.403v-7.725zm.018-3.508v1.393h1.43v-1.393h-1.43zm-3.362 6.253c.499-.014.967 0 1.268 0 0-2.232-1.769-2.821-3.191-2.821-1.423 0-3.192 1.29-3.192 4.058 0 2.769 1.552 4.115 3.48 4.046 1.926-.07 2.903-1.535 2.903-2.613-.562.013-.705.013-1.268 0 0 1.019-.917 1.554-1.636 1.554-1.72 0-2.11-1.67-2.11-2.996 0-1.328.44-2.966 1.976-2.966 1.304 0 1.77 1.01 1.77 1.738zm9.955-2.835c.887-.049 2.01.26 2.639.897.694.705 1.191 1.582 1.191 3.03 0 1.281-.256 2.208-.863 2.957-.685.846-1.752 1.233-2.618 1.233-.897 0-1.871-.141-2.69-.898-.67-.619-1.29-1.68-1.228-3.16.069-1.637.595-2.57 1.228-3.162.64-.598 1.391-.846 2.341-.897zm.32 1.07c-1.018 0-2.249.664-2.249 2.722 0 2.059.76 3.283 2.123 3.283 1.365 0 2.26-1.385 2.122-3.283-.139-1.898-.979-2.722-1.997-2.722h.001zm-18.453-2.2h1.032l1.98-1.871h-1.68l-1.332 1.871zM260.22 171.959v1.006h-4.825v3.416h4.11v1.036h-4.11v4.374h-1.417v-9.832h6.242zm1.242 2.542h1.304v7.174h-1.303l-.001-7.174zm.018-3.259v1.294h1.328v-1.294h-1.328zm3.439 3.326h1.142c.006.228.038.53.096.905 1.134-1.346 3.432-1.589 4.221.289.772-1.194 1.533-1.512 2.775-1.305 1.572.261 1.807 2.036 1.883 2.707-.033 1.922-.012 3.612 0 4.627h-1.323v-4.627c-.04-.684-.27-1.691-1.43-1.691-1.162 0-1.682 1.064-1.682 1.691v4.627h-1.315v-4.627c0-.808-.495-1.854-1.662-1.691-1.167.162-1.265.686-1.467.96.014 1.786.014 3.572 0 5.358h-1.238v-7.223z" fill="#2A3052" fill-rule="nonzero"/><path d="M22.284 19.803h-3.852L17.699 22h-2.336l3.97-10.664h2.036L25.36 22h-2.336l-.74-2.197zm-3.26-1.78h2.667l-1.34-3.992-1.326 3.992zm14.334.088c0 1.27-.27 2.26-.813 2.97-.542.71-1.298 1.065-2.27 1.065-.86 0-1.546-.33-2.058-.988l-.095.842h-1.905V10.75h2.117v4.036c.488-.572 1.13-.857 1.926-.857.967 0 1.725.355 2.274 1.065.55.71.824 1.71.824 3v.117zm-2.116-.154c0-.8-.127-1.385-.381-1.754s-.632-.553-1.135-.553c-.674 0-1.138.276-1.392.828v3.127c.259.557.728.835 1.406.835.684 0 1.133-.337 1.348-1.01.102-.323.154-.814.154-1.473zM39.254 22a2.35 2.35 0 0 1-.212-.71c-.513.57-1.18.856-2 .856-.776 0-1.42-.224-1.93-.673a2.167 2.167 0 0 1-.765-1.7c0-.84.311-1.484.934-1.933.623-.45 1.522-.676 2.699-.681h.974v-.454c0-.367-.094-.66-.282-.88-.188-.219-.484-.329-.89-.329-.356 0-.636.086-.838.256-.203.171-.304.406-.304.704h-2.117c0-.46.142-.884.425-1.275.283-.39.683-.697 1.2-.919.519-.222 1.1-.333 1.744-.333.977 0 1.752.245 2.326.736.573.49.86 1.18.86 2.069v3.435c.005.752.11 1.32.315 1.706V22h-2.139zm-1.75-1.472c.312 0 .6-.07.864-.209.264-.14.46-.326.586-.56v-1.363h-.79c-1.06 0-1.624.367-1.693 1.1l-.007.124c0 .263.093.48.278.651.186.171.44.257.762.257zM44.938 22h-2.124v-7.925h2.124V22zm-2.249-9.976c0-.317.107-.578.32-.783.211-.205.5-.308.867-.308.361 0 .65.103.864.308.215.205.322.466.322.783 0 .323-.108.586-.325.791-.218.206-.505.308-.861.308s-.643-.102-.86-.308a1.04 1.04 0 0 1-.327-.79zm7.01 4.417l1.333-2.366h2.263l-2.256 3.882L53.39 22h-2.27l-1.414-2.49L48.3 22h-2.278l2.351-4.043-2.248-3.882h2.27l1.304 2.366zm3.991 1.523c0-.786.152-1.486.455-2.102a3.324 3.324 0 0 1 1.307-1.428c.569-.337 1.23-.505 1.981-.505 1.07 0 1.942.327 2.619.981.676.654 1.053 1.543 1.131 2.666l.015.542c0 1.216-.34 2.191-1.018 2.926-.679.735-1.59 1.102-2.732 1.102-1.143 0-2.055-.366-2.736-1.098-.681-.733-1.022-1.729-1.022-2.988v-.096zm2.117.154c0 .752.142 1.327.425 1.725.283.398.688.597 1.216.597.512 0 .913-.197 1.2-.59.289-.393.433-1.021.433-1.886 0-.737-.144-1.308-.432-1.714-.288-.405-.693-.607-1.216-.607-.517 0-.918.201-1.201.604-.283.403-.425 1.026-.425 1.871z" fill="#000"/></g></svg>
